16x16/panel/pushbullet-indicator-paused.svg

<svg xmlns="http://www.w3.org/2000/svg" width="16" height="16" version="1.1">
 <defs>
  <style id="current-color-scheme" type="text/css">
   .ColorScheme-Text { color:#323a41; } .ColorScheme-Highlight { color:#4285f4; } .ColorScheme-NeutralText { color:#ff9800; } .ColorScheme-PositiveText { color:#4caf50; } .ColorScheme-NegativeText { color:#f44336; }
  </style>
 </defs>
 <path style="fill:currentColor" class="ColorScheme-Text" d="M -2e-4,2 V 14 H 1.9998 V 2 Z M 3.9998,2 V 14 L 8.252,13.967 C 11.183,13.934 11.46,13.895 12.699,13.291 15.401,11.975 16.679,8.786 15.64,5.9473 14.954,4.072 13.393,2.6846 11.404,2.1797 10.779,2.0211 10.383,2 7.955,2 Z M 6.9998,5 H 9 V 11 H 6.9998 Z M 10,5 H 12 V 11 H 10 Z"/>
</svg>

<svg xmlns="http://www.w3.org/2000/svg" width="16" height="16"><defs><style id="current-color-scheme" type="text/css"></style></defs><path d="M0 2v12h2V2zm4 0v12l4.252-.033c2.931-.033 3.208-.072 4.447-.676 2.702-1.316 3.98-4.505 2.941-7.344-.686-1.875-2.247-3.262-4.236-3.767C10.779 2.02 10.383 2 7.955 2zm3 3h2v6H7zm3 0h2v6h-2z" fill="currentColor" color="#d3dae3"/></svg>
